app/assets/images/heroicons/micro/rectangle-group.svg

<svg width="16" height="16" viewBox="0 0 16 16" fill="none" xmlns="http://www.w3.org/2000/svg">
<path d="M1 4C1 3.44772 1.44772 3 2 3H7C7.55228 3 8 3.44772 8 4V7C8 7.55228 7.55228 8 7 8H2C1.44772 8 1 7.55228 1 7V4Z" fill="black"/>
<path d="M10 5C10 4.44772 10.4477 4 11 4H14C14.5523 4 15 4.44772 15 5V11C15 11.5523 14.5523 12 14 12H11C10.4477 12 10 11.5523 10 11V5Z" fill="black"/>
<path d="M4 10C3.44772 10 3 10.4477 3 11V12C3 12.5523 3.44772 13 4 13H8C8.55228 13 9 12.5523 9 12V11C9 10.4477 8.55228 10 8 10H4Z" fill="black"/>
</svg>

<svg xmlns="http://www.w3.org/2000/svg" viewBox="0 0 16 16" fill="currentColor" aria-hidden="true" data-slot="icon">
  <path d="M1 4a1 1 0 0 1 1-1h5a1 1 0 0 1 1 1v3a1 1 0 0 1-1 1H2a1 1 0 0 1-1-1V4ZM10 5a1 1 0 0 1 1-1h3a1 1 0 0 1 1 1v6a1 1 0 0 1-1 1h-3a1 1 0 0 1-1-1V5ZM4 10a1 1 0 0 0-1 1v1a1 1 0 0 0 1 1h4a1 1 0 0 0 1-1v-1a1 1 0 0 0-1-1H4Z"/>
</svg>
